www/assets/icons/border_left.svg

<svg xmlns="http://www.w3.org/2000/svg" width="24" height="24" viewBox="0 0 24 24" fill='currentColor'><path d="M11 21h2v-2h-2zm0-4h2v-2h-2zm0-12h2V3h-2zm0 4h2V7h-2zm0 4h2v-2h-2zm-4 8h2v-2H7zM7 5h2V3H7zm0 8h2v-2H7zm-4 8h2V3H3zM19 9h2V7h-2zm-4 12h2v-2h-2zm4-4h2v-2h-2zm0-14v2h2V3zm0 10h2v-2h-2zm0 8h2v-2h-2zm-4-8h2v-2h-2zm0-8h2V3h-2z"/></svg>

<svg width="24" height="24" viewBox="0 0 24 24" xmlns="http://www.w3.org/2000/svg" fill='currentColor'><path d="M11 21H13V19H11V21ZM11 17H13V15H11V17ZM11 5H13V3H11V5ZM11 9H13V7H11V9ZM11 13H13V11H11V13ZM7 21H9V19H7V21ZM7 5H9V3H7V5ZM7 13H9V11H7V13ZM3 21H5V3H3V21ZM19 9H21V7H19V9ZM15 21H17V19H15V21ZM19 17H21V15H19V17ZM19 3V5H21V3H19ZM19 13H21V11H19V13ZM19 21H21V19H19V21ZM15 13H17V11H15V13ZM15 5H17V3H15V5Z"/></svg>
